X:1
T:O crux, ave!
T:O crux, ave!
C:Anonymous
%%score { ( 1 2 ) | ( 3 4 ) }
L:1/8
M:4/4
K:Bb
V:1 treble nm="Soprano Alto" snm="Choir"
V:2 treble 
V:3 bass 
V:4 bass 
V:1
!p!"^Larghetto" z8 |"^|" z8 | z8 | z8 |!mf! B4 A4 | !>!c4 B4 |!f! e4 d2 c2 |"^-" B6 c2 | %8
w: ||||O crux,|a- ve,|a- ve, spes|u- ni-|
 !fermata!d8 |!mf! e4 e2 d2 | c4 B4 |"^-" _A6 A2 | !fermata!G8 ||!p! E4 F2 F2 | (G2 _A2) B4 | %15
w: ca!|Hoc pas- si-|o- nis|||||
 _A6!>(! G2!>)! | F8 | G4 B2 B2 | e4 d4 | c6 c2 | B8 ||!mp! z8 | z8 | z8 |"^-" z8 | z8 | %26
w: ||pi- is ad-|au- ge|gra- ti-|am,||||||
 !tenuto!B4 !tenuto!A4 |"^rit.""^-" G6 G2 | !fermata!^F8 ||!mf!!<(! G4 A4!<)! |!f! B4"^|" G2 c2 | %31
w: |||O crux,|a- ve, spes|
 B4!>(! A4!>)! |"^|" !fermata!B4!p! G4 |"^rit.""^-" F6!pp! F2 | !fermata!F8 |] %35
w: u- ni-|ca, spes|u- ni-|ca!|
V:2
 D4 C4 | F4 B,2 E2 | D4 C4 | !fermata!D8 | D4 (C2 D2) | E4 D4 | G4 F2 E2 | (D4!>(! G2) G2!>)! | %8
w: O crux,|a- ve, spes|u- ni-|ca!|||||
 ^F8 | G4 G2 F2 | (E2 F2) G4 | (F2!>(! E2 D2) C2!>)! | =B,8 || C2 E4 D2 | E6 =E2 | F6 _E2 | D8 | %17
w: |||tem- * * po-|re|pi- * is|au- ge|gra- ti-|am,|
 (E2!<(! G2) F2!<)! F2 | (E2 F2) F4 | (G4!>(! F2) E2!>)! | D8 || G4 F2 D2 | E4 C4 | F4 B,4 | %24
w: ||||re- is- que|de- le,|de- le|
 E6 E2 | D8 | D6 C2 | (B,2!>(! =B,2 C2) ^C2!>)! | D8 || D4 F4 | F4 E2 G2 | F6 E2 | D4 (E2 D2) | %33
w: cri- mi-|na,|de- le|cri- * * mi-|na.|||||
 (C4!>(! D2) E2!>)! | D8 |] %35
w: ||
V:3
"^Tenore Basso" F,2 G,2 A,4 | B,2 A,2 G,2"^|" C2- | C2 B,4 A,2 | B,8 | z8 | z8 | B,4 B,2 A,2 | %7
 B,6 G,2 | A,8 | C4 =B,2 B,2 | C4 E2 D2 |!f! C6 E2 | D8 || C4 B,2 B,2 | B,4 B,4 | C6 C2 | B,8 | %17
 B,4 B,2 F,2 | G,2 A,2 B,4 | B,4 A,4 | B,8 || B,4 B,2 B,2 | C2 B,2 A,4 | B,2 A,2 G,2 F,2 | %24
 G,2 B,2 A,2 G,2 | ^F,8 | G,4 ^F,4 | G,6 G,2 | A,8 || B,4 C4 | D4"^|" B,2 E2- | E2 D4 C2 | %32
"^|" B,4 B,4 | B,2 G,2 A,4 | B,8 |] %35
V:4
 B,,4 F,2 E,2 | D,4 G,2 E,2 | F,6 F,2 | !fermata!B,,8 | B,,4 F,4 | C,2 E,2 G,4 | E,4 B,,2 F,2 | %7
 G,2 F,2 E,2 E,2 | !fermata!D,8 | C,2 E,2 G,2 G,2 | _A,4 E,4 | F,6 F,2 | !fermata!G,8 || %13
 C4 B,2 B,,2 | E,2 F,2 G,4 | _A,6 =A,2 | B,8 | E,4 D,2 D,2 | C,4 B,,2 D,2 | E,4 F,4 | B,,8 || %21
 E,4 D,2 G,2 | C,4 F,2 E,2 | D,4 E,2 D,2 | C,6 C,2 | D,8 | G,,2 B,,2 D,4 | E,6 E,2 | %28
 !fermata!D,8 || G,4 F,4 | B,,4 E,2 C,2 | F,6 ^F,2 | !fermata!G,4 E,4 | F,6 [F,,F,]2 | %34
 !fermata!B,,8 |] %35

